X:912
T:Reel 912
M:4/4
K:Gmaj
L:1/8
 (3cBA |G2BG dcBA|GEDE FEFD|GBBG dGBd| (3efg dc BGGF|G2BG dGBG|ABcd cBAF|GBAc Bdeg|fdcA G2|df|g2fg egdg|adbg agef|g2bg bgag| (3efg df e2 (3def |g2bg gbag|fd (3ddd agfa|gbaf gfeg|f<dfa gedB|
